svgs/solid/piggy-bank.svg

<svg xmlns="http://www.w3.org/2000/svg" viewBox="0 0 576 512"><!-- Font Awesome Pro 6.0.0-alpha2 by @fontawesome - https://fontawesome.com License - https://fontawesome.com/license (Commercial License) --><path d="M255.984 96H383.991C389.366 96 394.741 96.375 399.866 96.75C399.866 96.5 399.991 96.25 399.991 96C399.991 43 356.989 0 303.987 0S207.982 43 207.982 96C207.982 98.125 208.482 100.125 208.607 102.25C223.733 98.25 239.609 96 255.984 96ZM559.999 224H530.498C521.747 204 508.872 186.25 493.121 171.5L511.997 96H479.995C450.619 96 424.618 109.5 406.992 130.25C399.366 129.25 391.866 128 383.991 128H255.984C178.606 128 114.103 183 99.227 256H55.975C41.224 256 29.473 242.5 32.474 227.25C34.724 215.75 45.349 208 56.975 208H57.975C61.225 208 63.975 205.25 63.975 202.001V182.001C63.975 178.75 61.225 176 57.975 176C29.473 176 4.097 196.375 0.472 224.625C-3.903 258.75 22.723 288 55.975 288H95.977C95.977 340.25 121.353 386.125 159.98 415.25V480C159.98 497.6 174.38 512 191.981 512H223.983C241.584 512 255.984 497.6 255.984 480V448H383.991V480C383.991 497.6 398.391 512 415.992 512H447.994C465.595 512 479.995 497.6 479.995 480V415.25C491.746 406.375 502.246 395.875 511.247 384H559.999C568.8 384 576 376.8 576 368V240C576 231.2 568.8 224 559.999 224ZM431.993 288C423.243 288 415.992 280.75 415.992 272S423.243 256 431.993 256S447.994 263.25 447.994 272S440.743 288 431.993 288Z"/></svg>

<svg xmlns="http://www.w3.org/2000/svg" viewBox="0 0 576 512"><!-- Font Awesome Pro 5.15.1 by @fontawesome - https://fontawesome.com License - https://fontawesome.com/license (Commercial License) --><path d="M560 224h-29.5c-8.8-20-21.6-37.7-37.4-52.5L512 96h-32c-29.4 0-55.4 13.5-73 34.3-7.6-1.1-15.1-2.3-23-2.3H256c-77.4 0-141.9 55-156.8 128H56c-14.8 0-26.5-13.5-23.5-28.8C34.7 215.8 45.4 208 57 208h1c3.3 0 6-2.7 6-6v-20c0-3.3-2.7-6-6-6-28.5 0-53.9 20.4-57.5 48.6C-3.9 258.8 22.7 288 56 288h40c0 52.2 25.4 98.1 64 127.3V496c0 8.8 7.2 16 16 16h64c8.8 0 16-7.2 16-16v-48h128v48c0 8.8 7.2 16 16 16h64c8.8 0 16-7.2 16-16v-80.7c11.8-8.9 22.3-19.4 31.3-31.3H560c8.8 0 16-7.2 16-16V240c0-8.8-7.2-16-16-16zm-128 64c-8.8 0-16-7.2-16-16s7.2-16 16-16 16 7.2 16 16-7.2 16-16 16zM256 96h128c5.4 0 10.7.4 15.9.8 0-.3.1-.5.1-.8 0-53-43-96-96-96s-96 43-96 96c0 2.1.5 4.1.6 6.2 15.2-3.9 31-6.2 47.4-6.2z"/></svg>
